static/icons/storage.svg

<svg width="131" height="100" viewBox="0 0 131 100" fill="none" xmlns="http://www.w3.org/2000/svg">
<path d="M2.14624 85.5152C2.14624 92.8486 15.7156 98.7273 32.435 98.7273C49.1544 98.7273 62.7237 92.7879 62.7237 85.5152V28.3031C62.7237 35.5758 49.1544 41.5152 32.435 41.5152C15.7156 41.5152 2.14624 35.5758 2.14624 28.3031V85.5152Z" fill="#EBECE9"/>
<path d="M62.7237 28.3031V85.5152C62.7237 92.7879 49.1544 98.7273 32.435 98.7273C18.381 98.7273 6.629 94.5455 3.17609 88.9092C10.4454 92.2425 18.381 93.8789 26.4378 93.6364C43.1572 93.6364 56.7266 87.7576 56.7266 80.4243V36.1819C60.4824 34.0607 62.7237 31.2728 62.7237 28.3031Z" fill="#C1C1C1"/>
<path d="M32.435 41.5152C49.163 41.5152 62.7237 35.5999 62.7237 28.3031C62.7237 21.0062 49.163 15.0909 32.435 15.0909C15.707 15.0909 2.14624 21.0062 2.14624 28.3031C2.14624 35.5999 15.707 41.5152 32.435 41.5152Z" fill="#EBECE9"/>
<path d="M32.435 14C14.8676 14 1.05591 20.303 1.05591 28.303C1.05591 36.303 14.807 42.6061 32.435 42.6061C50.0025 42.6061 63.8142 36.303 63.8142 28.303C63.8142 20.303 50.0025 14 32.435 14ZM32.4956 40.7273C16.5032 40.7273 2.99439 35.0303 2.99439 28.303C2.99439 21.5758 16.5032 15.8788 32.4956 15.8788C48.4881 15.8788 61.9968 21.5758 61.9968 28.303C61.9968 35.0303 48.4881 40.7273 32.4956 40.7273Z" fill="#22417D"/>
<path d="M62.7237 46.4849C62.2391 46.4849 61.8151 46.9091 61.8151 47.394C61.8151 54.0606 48.3669 59.7576 32.435 59.7576C16.5031 59.7576 3.05493 54.1212 3.05493 47.394C3.05493 46.9091 2.63089 46.4849 2.14627 46.4849C1.66165 46.4849 1.23761 46.9091 1.23761 47.394C1.23761 55.3334 14.9281 61.5152 32.3744 61.5152C49.8207 61.5152 63.5112 55.3334 63.5112 47.394C63.5718 46.9091 63.2084 46.4849 62.7237 46.4849Z" fill="#22417D"/>
<path d="M62.7238 65.4546C62.1786 65.4546 61.7546 65.8788 61.7546 66.4243C61.7546 73.091 48.367 78.6667 32.4351 78.6667C16.5638 78.6667 3.1156 73.0303 3.1156 66.4243C3.1156 65.8788 2.69156 65.4546 2.14636 65.4546C1.60117 65.4546 1.17712 65.8788 1.17712 66.4243C1.17712 74.3637 14.9282 80.6061 32.4351 80.6061C49.942 80.6061 63.6931 74.3637 63.6931 66.4243C63.6931 65.9394 63.269 65.4546 62.7238 65.4546Z" fill="#22417D"/>
<path d="M2.14627 17.1516C1.47992 17.1516 0.9953 16.6061 0.9953 15.9394C0.9953 15.5758 1.17703 15.2122 1.47992 15.0303C2.14627 14.5455 2.81262 14.0606 3.53955 13.6364C4.08475 13.2728 4.81168 13.4546 5.17515 14.0606C5.53861 14.6061 5.35688 15.3334 4.7511 15.697C4.08475 16.1213 3.47898 16.5455 2.8732 16.9697C2.63089 17.0909 2.38858 17.1516 2.14627 17.1516Z" fill="#22417D"/>
<path d="M9.90018 13.0303C9.23383 13.0303 8.74921 12.4849 8.74921 11.8788C8.74921 11.394 9.05209 10.9697 9.47614 10.7879C15.9579 8.42427 22.7426 7.09094 29.6484 6.90912C30.3148 6.90912 30.86 7.39397 30.86 8.06063C30.86 8.7273 30.3754 9.27276 29.709 9.27276C23.1061 9.45457 16.5637 10.7273 10.3242 12.9697C10.1425 13.0303 10.0213 13.0303 9.90018 13.0303Z" fill="#22417D"/>
<path d="M63.693 28C63.693 27.5152 63.269 27.0909 62.7843 27.0909C62.2997 27.0909 61.8757 27.5152 61.8757 28C61.8757 34.7273 48.3669 40.4849 32.3745 40.4849C16.382 40.4849 2.87323 34.7879 2.87323 28C2.87323 27.5152 2.44919 27.0909 1.96457 27.0909C1.47995 27.0909 1.05591 27.5152 1.05591 28V85.7576C1.17706 93.7576 14.9281 100 32.435 100C49.9419 100 63.693 93.7576 63.693 85.7576V28ZM61.9363 85.7576C61.9363 92.4849 48.4275 98.2425 32.435 98.2425C16.4426 98.2425 2.93381 92.5455 2.93381 85.7576V32.7879L3.47901 33.394C8.20405 38.7273 19.5926 42.2425 32.435 42.2425C45.2775 42.2425 56.666 38.7879 61.3911 33.394L61.9363 32.7879V85.7576Z" fill="#22417D"/>
<path d="M25.0445 53.3333C24.7416 53.2727 24.6205 53.2121 24.3176 53.0909C23.833 52.9091 23.2272 53.1515 22.9849 53.6363C22.8032 54.1212 23.106 54.7272 23.5907 54.9091H23.6512C23.9541 55.0303 24.0753 55.0909 24.3782 55.1515C24.8628 55.3939 25.408 55.1515 25.6503 54.6666C25.8926 54.1818 25.6503 53.6363 25.1657 53.3939C25.1657 53.3333 25.1051 53.3333 25.0445 53.3333Z" fill="white"/>
<path d="M41.5216 53.091C37.5235 54.6667 33.1013 55.091 28.8609 54.1819C28.3157 54.0607 27.8311 54.4243 27.71 54.9698C27.6494 55.5152 28.0128 56.0001 28.558 56.0607H28.6186C33.1619 56.9698 37.887 56.6061 42.188 54.8486C42.7332 54.7274 43.0361 54.1819 42.8543 53.6364V53.5758C42.612 53.1516 42.0062 52.9092 41.5216 53.091Z" fill="white"/>
<path d="M86.9547 81.0303C107.53 81.0303 124.21 64.3427 124.21 43.7576C124.21 23.1724 107.53 6.48486 86.9547 6.48486C66.3793 6.48486 49.6996 23.1724 49.6996 43.7576C49.6996 64.3427 66.3793 81.0303 86.9547 81.0303Z" fill="#EBECE9"/>
<path d="M86.9547 5.45453C75.1421 5.45453 64.0564 10.9091 56.7871 20.2424C71.9315 5.57574 96.1625 5.93938 110.883 21.0909C124.149 34.7879 125.3 56.2424 113.548 71.2727C128.753 56.606 129.238 32.3636 114.578 17.1515C107.309 9.69695 97.374 5.45453 86.9547 5.45453Z" fill="#C1C1C1"/>
<path d="M86.9547 10.9091C86.5306 10.9091 86.1672 10.6061 86.1672 10.303V0.606061C86.1672 0.242424 86.5306 0 86.9547 0C87.3787 0 87.7422 0.30303 87.7422 0.606061V10.2424C87.7422 10.6061 87.3787 10.9091 86.9547 10.9091Z" fill="#244583"/>
<path d="M86.9547 87.5151C86.5306 87.5151 86.1672 87.2121 86.1672 86.909V77.2727C86.1672 76.9091 86.5306 76.6666 86.9547 76.6666C87.3787 76.6666 87.7422 76.9697 87.7422 77.2727V86.909C87.7422 87.2121 87.3787 87.5151 86.9547 87.5151Z" fill="#244583"/>
<path d="M130.025 44.5455H120.393C120.03 44.5455 119.788 44.1818 119.788 43.7576C119.788 43.3334 120.091 42.9697 120.393 42.9697H130.025C130.389 42.9697 130.631 43.3334 130.631 43.7576C130.692 44.1818 130.389 44.5455 130.025 44.5455Z" fill="#244583"/>
<path d="M53.4554 44.5455H43.8235C43.4601 44.5455 43.2178 44.1818 43.2178 43.7576C43.2178 43.3334 43.5207 42.9697 43.8235 42.9697H53.4554C53.8188 42.9697 54.0611 43.3334 54.0611 43.7576C54.1217 44.1818 53.8188 44.5455 53.4554 44.5455Z" fill="#244583"/>
<path d="M86.9547 82.6667C65.4497 82.6667 48.064 65.2121 48.064 43.7576C48.0034 22.2424 65.4497 4.84851 86.9547 4.84851C108.46 4.84851 125.845 22.3031 125.845 43.7576C125.845 65.2121 108.399 82.6667 86.9547 82.6667ZM86.9547 6.48487C66.3584 6.48487 49.6996 23.1515 49.6996 43.7576C49.6996 64.3637 66.3584 81.0303 86.9547 81.0303C107.551 81.0303 124.21 64.3637 124.21 43.7576C124.149 23.1515 107.49 6.48487 86.9547 6.48487Z" fill="#244583"/>
<path d="M77.335 30.4228C78.4284 29.4873 78.6272 27.9246 77.779 26.9325C76.9309 25.9404 75.3571 25.8946 74.2637 26.8301C73.1704 27.7656 72.9716 29.3283 73.8197 30.3204C74.6678 31.3125 76.2417 31.3584 77.335 30.4228Z" fill="#EEEFEE"/>
<path d="M73.87 74.8484C73.7488 74.8484 73.6277 74.8484 73.5065 74.7878C72.2344 74.2424 70.9623 73.5757 69.7507 72.8484C69.3267 72.606 69.2055 72.0605 69.5084 71.6363C69.7507 71.2121 70.2959 71.0908 70.7199 71.3333C71.8709 71.9999 73.0825 72.6666 74.294 73.1515C74.7181 73.3333 74.9604 73.8787 74.7786 74.303C74.5363 74.6666 74.2334 74.8484 73.87 74.8484Z" fill="white"/>
<path d="M67.2065 70.9697C67.0247 70.9697 66.843 70.9091 66.6613 70.7879C61.8756 67.1515 58.1804 62.3031 55.939 56.7879C55.7573 56.3031 55.9996 55.8182 56.4237 55.6364C56.9083 55.4546 57.3929 55.697 57.5746 56.1212C59.6948 61.394 63.2083 65.9394 67.7516 69.394C68.1151 69.697 68.2363 70.2424 67.9334 70.6667C67.7516 70.7879 67.5093 70.9697 67.2065 70.9697Z" fill="white"/>
<path d="M73.6882 37.5758C71.7498 37.5758 70.1747 39.1516 70.1747 41.091V59.0304C70.1747 63.091 73.5065 66.4243 77.5652 66.4243H96.2836C100.342 66.4243 103.674 63.091 103.674 59.0304V41.091C103.674 39.1516 102.099 37.5758 100.161 37.5758H73.6882Z" fill="#9FEFDE"/>
<path d="M100.645 37.5758H97.6769C99.3731 37.5758 100.706 39.1516 100.706 41.091V59.0304C100.706 63.091 97.798 66.4243 94.2845 66.4243H97.2528C100.827 66.4243 103.674 63.091 103.674 59.0304V41.091C103.674 39.1516 102.341 37.5758 100.645 37.5758Z" fill="#24C4A1"/>
<path d="M100.221 36.303H73.7488C71.144 36.303 68.9632 38.4242 68.9632 41.0909V59.0303C68.9632 63.8181 72.8402 67.6969 77.6258 67.6969H96.3442C101.13 67.6969 105.007 63.8181 105.007 59.0303V41.0909C105.007 38.4242 102.826 36.303 100.221 36.303ZM103.25 41.0909V59.0303C103.25 62.8484 100.161 65.9394 96.3442 65.9394H77.6258C73.8094 65.9394 70.7199 62.8484 70.7199 59.0303V41.0909C70.7199 39.4545 72.0526 38.0606 73.7488 38.0606H100.221C101.857 38.0606 103.25 39.3939 103.25 41.0909Z" fill="#244583"/>
<path d="M86.9548 16C80.2307 16 74.7787 21.4545 74.7787 28.1818V36.3636C74.7787 36.8485 75.2027 37.2727 75.6873 37.2727C76.172 37.2727 76.596 36.8485 76.596 36.3636V28.1818C76.596 22.4242 81.2605 17.7576 87.0153 17.7576C92.7702 17.7576 97.4347 22.4242 97.4347 28.1818V36.3636C97.4347 36.8485 97.8587 37.2727 98.3433 37.2727C98.8279 37.2727 99.252 36.8485 99.252 36.3636V28.1818C99.1308 21.4545 93.6788 16 86.9548 16Z" fill="#244583"/>
<path d="M89.2567 52.2423V58.2423C89.2567 58.7878 88.8326 59.212 88.348 59.212H85.622C85.1374 59.212 84.7134 58.7878 84.7134 58.2423V52.2423C83.6836 51.5151 83.0172 50.3029 83.0172 48.909C83.0172 46.6666 84.774 44.8484 87.0153 44.8484C89.1961 44.8484 91.0134 46.6666 91.0134 48.909C90.9529 50.2423 90.2865 51.4544 89.2567 52.2423Z" fill="#E9ECEF"/>
<path d="M86.9547 44.0605C84.3499 44.0605 82.2297 46.2424 82.2297 48.909C82.2297 50.3636 82.8354 51.6969 83.9258 52.606V58.2424C83.9258 59.2121 84.6528 59.9393 85.622 59.9393H88.348C89.2567 59.9393 90.0442 59.1515 90.0442 58.2424V52.606C91.1346 51.6969 91.7403 50.3636 91.7403 48.909C91.6798 46.2424 89.5595 44.0605 86.9547 44.0605ZM85.1374 51.6363C84.2893 51.0302 83.7441 49.9999 83.7441 48.909C83.7441 47.0908 85.198 45.5757 86.9547 45.5757C88.7115 45.5757 90.1653 47.0908 90.1653 48.909C90.1653 49.9999 89.6807 51.0302 88.772 51.6363L88.4691 51.8787V58.303C88.4691 58.4242 88.4086 58.4848 88.2874 58.4848H85.5614C85.4403 58.4848 85.3797 58.4242 85.3797 58.303V51.8181L85.1374 51.6363Z" fill="#244583"/>
</svg>

<svg xmlns="http://www.w3.org/2000/svg" width="131" height="100" fill="none" xmlns:v="https://vecta.io/nano"><path d="M2.146 85.515c0 7.333 13.569 13.212 30.289 13.212s30.289-5.939 30.289-13.212V28.303c0 7.273-13.569 13.212-30.289 13.212S2.146 35.576 2.146 28.303v57.212z" fill="#ebece9"/><path d="M62.724 28.303v57.212c0 7.273-13.569 13.212-30.289 13.212-14.054 0-25.806-4.182-29.259-9.818 7.269 3.333 15.205 4.97 23.262 4.727 16.719 0 30.289-5.879 30.289-13.212V36.182c3.756-2.121 5.997-4.909 5.997-7.879z" fill="#c1c1c1"/><path d="M32.435 41.515c16.728 0 30.289-5.915 30.289-13.212S49.163 15.091 32.435 15.091 2.146 21.006 2.146 28.303s13.561 13.212 30.289 13.212z" fill="#ebece9"/><g fill="#22417d"><path d="M32.435 14C14.868 14 1.056 20.303 1.056 28.303s13.751 14.303 31.379 14.303c17.567 0 31.379-6.303 31.379-14.303S50.003 14 32.435 14zm.061 26.727c-15.992 0-29.501-5.697-29.501-12.424s13.509-12.424 29.501-12.424 29.501 5.697 29.501 12.424-13.509 12.424-29.501 12.424zm30.228 5.758c-.485 0-.909.424-.909.909 0 6.667-13.448 12.364-29.38 12.364s-29.38-5.636-29.38-12.364c0-.485-.424-.909-.909-.909s-.909.424-.909.909c0 7.939 13.69 14.121 31.137 14.121s31.137-6.182 31.137-14.121c.061-.485-.303-.909-.788-.909zm0 18.97c-.545 0-.969.424-.969.97 0 6.667-13.388 12.242-29.32 12.242-15.871 0-29.319-5.636-29.319-12.242 0-.546-.424-.97-.969-.97s-.969.424-.969.97c0 7.939 13.751 14.182 31.258 14.182s31.258-6.242 31.258-14.182a1 1 0 0 0-.969-.97zM2.146 17.152c-.666 0-1.151-.545-1.151-1.212 0-.364.182-.727.485-.909l2.06-1.394c.545-.364 1.272-.182 1.636.424.363.545.182 1.273-.424 1.636L2.873 16.97c-.242.121-.485.182-.727.182z"/><path d="M9.9 13.03a1.15 1.15 0 0 1-1.151-1.152c0-.485.303-.909.727-1.091 6.482-2.364 13.266-3.697 20.172-3.879.666 0 1.212.485 1.212 1.152s-.485 1.212-1.151 1.212c-6.603.182-13.145 1.455-19.385 3.697-.182.061-.303.061-.424.061zM63.693 28c0-.485-.424-.909-.909-.909s-.909.424-.909.909c0 6.727-13.509 12.485-29.501 12.485S2.873 34.788 2.873 28c0-.485-.424-.909-.909-.909s-.909.424-.909.909v57.758c.121 8 13.872 14.242 31.379 14.242s31.258-6.242 31.258-14.242V28zm-1.757 57.758c0 6.727-13.509 12.485-29.501 12.485S2.934 92.546 2.934 85.758v-52.97l.545.606c4.725 5.333 16.114 8.849 28.956 8.849s24.231-3.455 28.956-8.849l.545-.606v52.97z"/></g><path d="M25.045 53.333c-.303-.061-.424-.121-.727-.242a1.11 1.11 0 0 0-1.333.545c-.182.485.121 1.091.606 1.273h.061c.303.121.424.182.727.242.485.242 1.03 0 1.272-.485s0-1.03-.485-1.273c0-.061-.061-.061-.121-.061zm16.477-.242c-3.998 1.576-8.42 2-12.661 1.091-.545-.121-1.03.242-1.151.788-.061.545.303 1.03.848 1.091h.061c4.543.909 9.268.545 13.569-1.212.545-.121.848-.667.666-1.212v-.061c-.242-.424-.848-.667-1.333-.485z" fill="#fff"/><path d="M86.955 81.03c20.575 0 37.255-16.688 37.255-37.273S107.53 6.485 86.955 6.485 49.7 23.172 49.7 43.758 66.379 81.03 86.955 81.03z" fill="#ebece9"/><path d="M86.955 5.455c-11.813 0-22.898 5.455-30.168 14.788 15.144-14.667 39.375-14.303 54.096.849 13.266 13.697 14.417 35.152 2.665 50.182 15.205-14.667 15.69-38.909 1.03-54.121-7.269-7.455-17.204-11.697-27.623-11.697z" fill="#c1c1c1"/><g fill="#244583"><path d="M86.955 10.909c-.424 0-.788-.303-.788-.606V.606c0-.364.363-.606.788-.606s.787.303.787.606v9.636c0 .364-.364.667-.787.667zm0 76.606c-.424 0-.788-.303-.788-.606v-9.636c0-.364.363-.606.788-.606s.787.303.787.606v9.636c0 .303-.364.606-.787.606zm43.07-42.969h-9.632c-.363 0-.605-.364-.605-.788s.303-.788.605-.788h9.632c.364 0 .606.364.606.788.061.424-.242.788-.606.788zm-76.57 0h-9.632c-.363 0-.606-.364-.606-.788s.303-.788.606-.788h9.632c.363 0 .606.364.606.788.061.424-.242.788-.606.788z"/><path d="M86.955 82.667c-21.505 0-38.891-17.455-38.891-38.909C48.003 22.242 65.45 4.849 86.955 4.849s38.89 17.455 38.89 38.909-17.446 38.909-38.89 38.909zm0-76.182C66.358 6.485 49.7 23.152 49.7 43.758S66.358 81.03 86.955 81.03s37.255-16.667 37.255-37.273c-.061-20.606-16.72-37.273-37.255-37.273z"/></g><path d="M77.335 30.423c1.093-.935 1.292-2.498.444-3.49s-2.422-1.038-3.515-.102-1.292 2.498-.444 3.49 2.422 1.038 3.515.102z" fill="#eeefee"/><path d="M73.87 74.848c-.121 0-.242 0-.364-.061-1.272-.545-2.544-1.212-3.756-1.939-.424-.242-.545-.788-.242-1.212.242-.424.788-.546 1.212-.303 1.151.667 2.363 1.333 3.574 1.818.424.182.666.727.485 1.151-.242.364-.545.545-.909.545zm-6.663-3.878c-.182 0-.364-.061-.545-.182a33.37 33.37 0 0 1-10.722-14c-.182-.485.061-.97.485-1.151.485-.182.969.061 1.151.485 2.12 5.273 5.634 9.818 10.177 13.273.364.303.485.848.182 1.273-.182.121-.424.303-.727.303z" fill="#fff"/><path d="M73.688 37.576a3.52 3.52 0 0 0-3.513 3.515V59.03c0 4.061 3.332 7.394 7.391 7.394h18.718c4.058 0 7.39-3.333 7.39-7.394V41.091a3.52 3.52 0 0 0-3.513-3.515H73.688z" fill="#9fefde"/><path d="M100.645 37.576h-2.968c1.696 0 3.029 1.576 3.029 3.515V59.03c0 4.061-2.908 7.394-6.422 7.394h2.968c3.574 0 6.421-3.333 6.421-7.394V41.091c0-1.939-1.333-3.515-3.029-3.515z" fill="#24c4a1"/><g fill="#244583"><path d="M100.221 36.303H73.749a4.8 4.8 0 0 0-4.786 4.788V59.03c0 4.788 3.877 8.667 8.663 8.667h18.718c4.786 0 8.663-3.879 8.663-8.667V41.091a4.8 4.8 0 0 0-4.786-4.788zm3.029 4.788V59.03c0 3.818-3.089 6.909-6.906 6.909H77.626c-3.816 0-6.906-3.091-6.906-6.909V41.091a3.04 3.04 0 0 1 3.029-3.03h26.472a3.04 3.04 0 0 1 3.029 3.03z"/><path d="M86.955 16c-6.724 0-12.176 5.454-12.176 12.182v8.182c0 .485.424.909.909.909s.909-.424.909-.909v-8.182c0-5.758 4.664-10.424 10.419-10.424s10.419 4.667 10.419 10.424v8.182c0 .485.424.909.909.909s.909-.424.909-.909v-8.182C99.131 21.455 93.679 16 86.955 16z"/></g><path d="M89.257 52.242v6c0 .545-.424.97-.909.97h-2.726c-.485 0-.909-.424-.909-.97v-6c-1.03-.727-1.696-1.939-1.696-3.333 0-2.242 1.757-4.061 3.998-4.061 2.181 0 3.998 1.818 3.998 4.061-.061 1.333-.727 2.545-1.757 3.333z" fill="#e9ecef"/><path d="M86.955 44.061c-2.605 0-4.725 2.182-4.725 4.849 0 1.455.606 2.788 1.696 3.697v5.636c0 .97.727 1.697 1.696 1.697h2.726c.909 0 1.696-.788 1.696-1.697v-5.636c1.09-.909 1.696-2.242 1.696-3.697-.061-2.667-2.181-4.849-4.786-4.849zm-1.817 7.576c-.848-.606-1.393-1.636-1.393-2.727 0-1.818 1.454-3.333 3.211-3.333s3.211 1.515 3.211 3.333c0 1.091-.485 2.121-1.393 2.727l-.303.242v6.424c0 .121-.06.182-.182.182h-2.726c-.121 0-.182-.061-.182-.182v-6.485l-.242-.182z" fill="#244583"/></svg>
